X:1
T:Bacchus
T:nach Shakespeare
T:Franz Schubert
T:Bacchus
T:CPDL   —   Creative Commons Attribution Non Commercial 3.0
C:Franz Schubert
Z:Shakespeare
Z:CPDL   —   Creative Commons Attribution Non Commercial 3.0
%%score [ ( 1 2 ) ( 3 4 ) ]
L:1/8
Q:1/4=120
M:2/2
K:C
V:1 treble-8 nm="Tenor"
V:2 treble-8 
V:3 bass nm="Bass"
V:4 bass 
V:1
"^Feurig"!f! !>!c4 !>!G4 | ED EF G2 AB | c4 z4 ::!mf! dc Bc d2 e2 | d2 B2"^" G4 :| %5
w: 1.  Bac- chus,|ed- * ler * Fürst des *|Weins,|1.  uns'- * re * Sorg' ver-|scheuch' dein Fass,|
w: komm mit|Au- * gen * hel- len *|Scheins;|und * dein * Laub uns|krö- nen lass.|
w: 2.  Un- ser|Sang * er- * schal- le *|hoch!|2.  So * ent- * flie- het|froh die Zeit;|
w: Wein mit|Sang * schmeckt * bes- ser *|noch.|wem's * nicht * mun- det,|flie- he weit!|
!f! !>!c4 !>!c4 | cB cB cB cB | c4 z4 | !>!e4 !>!e4 | e^d ed ed ed | e4 z4 | !>!g4 !>!e4 | %12
w: Schenk' Wein,|bis * die * Welt * sich *|dreht;|schenk' Wein,|bis * die * Welt * sich *|dreht;|schenk' Wein,|
w: Hoch dir,|ed- * ler * Göt- * ter- *|trank;|hoch dir,|ed- * ler * Göt- * ter- *|trank;|hoch dir,|
w: |||||||
w: |||||||
 dc Bc d2 e2 | c4 z4 |] %14
w: bis * die * Welt sich|dreht.|
w: ed- * ler * Göt- ter-|trank.|
w: ||
w: ||
V:2
 c4 G4 | ED EF G2 G2 | G4 x4 :: BA GA B2 c2 | B2 G2 G4 :| c4 c4 | cB cB cB cB | c4 x4 | c4 c4 | %9
 c2 c2 c2 c2 | c4 x4 | e4 c4 | BA GA B2 B2 | G4 x4 |] %14
V:3
!f! !>!C4 !>!G,4 | E,D, E,F, G,2 D,2 | E,4 z4 ::!mf! G,2 G,2 G,2 G,2 | G,2 G,2"^" G,4 :| %5
!f! !>!C,4 !>!C,4 | C,B,, C,B,, C,B,, C,B,, | C,4 z4 | !>!G,4 !>!G,4 | G,^F, G,F, G,F, G,F, | %10
 G,4 z4 | !>!C4 !>!G,4 | G,2 G,2 G,2 G,2 | E,4 z4 |] %14
V:4
 C4 G,4 | E,D, E,F, G,2 G,,2 | C,4 x4 :: G,,2 G,,2 G,2 G,2 | G,2 G,2 G,4 :| C,4 C,4 | %6
 C,B,, C,B,, C,B,, C,B,, | C,4 x4 | C,4 C,4 | C,2 C,2 C,2 C,2 | C,4 x4 | C,4 E,4 | %12
 G,2 G,2 G,,2 G,,2 | C,4 x4 |] %14

